X: 302
T:Steamboat Quickstep
% Nottingham Music Database
S:Lesley Dolman, via EF
M:6/8
K:A
P:A
e|"A"a2e c2A|"A"Ace a3|"D"agf "A"edc|"Bm"Bcd "E7"cBA|
"A"a2e c2A|"A"Ace a3|"D"agf "A"edc|"E7"edB "A"A2:|
P:B
B|"A"c2e efe|"A"efe c2A|"D"d2f fga|"D"fga "E7"f2e|
"A"c2e efe|"A"efe c2A|"D"agf "A"edc|"E7"edB "A"A2:|<end>
<start>
